X:1
T:A Domestic Disturbance
R:reel
C: 1974, 2010 L.E. McCullough  
M:4/4 
L:1/8
K:Em
~B2AG FEDF|~E2FE ~E2FD|(3gfe (3fed BAGE|~F3A dFAF|
BAGB AGFD|~E2FE ~E2FD|(3gfe (3fed (3B^cd AF|GFED ~E3A:|
|:Beed ~e3f|g~e3 b~e3|(3B^cd ef d~B3|d~f3 a~f3|
d~e3 ~e3f|1 g~e3 B~e3|(3gfe (3fed (3B^cd AF|GFED ~E3A:|
[2 ~g3a gfed|e~g3 edAF|GFED ~E3A|]

